src/icons/blockchains/dark/xpla.svg

<svg width="24" height="24" viewBox="0 0 24 24" fill="none" xmlns="http://www.w3.org/2000/svg">
  <rect width="24" height="24" rx="12" fill="#080530" />
  <mask
    id="mask0_1131_18491"
    style="mask-type: alpha"
    maskUnits="userSpaceOnUse"
    x="4"
    y="4"
    width="16"
    height="16"
  >
    <rect x="4" y="4" width="16" height="16" fill="#D9D9D9" />
  </mask>
  <g mask="url(#mask0_1131_18491)">
    <path
      fill-rule="evenodd"
      clip-rule="evenodd"
      d="M16.9497 16.7902C15.637 18.0601 13.8565 18.7736 12 18.7736C10.1435 18.7736 8.36301 18.0601 7.05025 16.7902C5.7375 15.5203 5 13.7979 5 12.002C5 10.2061 5.7375 8.48372 7.05025 7.2138C8.36301 5.9439 10.1435 5.23047 12 5.23047C13.8565 5.23047 15.637 5.9439 16.9497 7.2138C18.2625 8.48372 19 10.2061 19 12.002C19 13.7979 18.2625 15.5203 16.9497 16.7902ZM12.5099 12.963L13.0055 12.4836L16.4084 15.7755L15.9128 16.2549L12.5099 12.963ZM7.59239 8.22058L8.08717 7.74119L11.4901 11.0331L10.9954 11.5125L7.59239 8.22058ZM12.5075 11.0423L15.9065 7.74657L15.9073 7.74811L16.4028 8.22674L13.0023 11.5202L12.5075 11.0423ZM7.60352 15.7855L11.0041 12.4913L11.4997 12.9707L8.0991 16.2641L7.60352 15.7855Z"
      fill="white"
    />
  </g>
</svg>

<svg
  xmlns="http://www.w3.org/2000/svg"
  width="24"
  height="24"
  fill="none"
  xmlns:v="https://vecta.io/nano"
>
  <rect width="24" height="24" rx="12" fill="#080530" />
  <mask id="A" maskUnits="userSpaceOnUse" x="4" y="4" width="16" height="16" mask-type="alpha">
    <path fill="#d9d9d9" d="M4 4h16v16H4z" />
  </mask>
  <g mask="url(#A)">
    <path
      fill-rule="evenodd"
      d="M16.95 16.79c-1.313 1.27-3.093 1.983-4.95 1.983s-3.637-.713-4.95-1.983S5 13.798 5 12.002s.737-3.518 2.05-4.788S10.144 5.23 12 5.23s3.637.713 4.95 1.983S19 10.206 19 12.002s-.738 3.518-2.05 4.788zm-4.44-3.827l.496-.479 3.403 3.292-.496.479-3.403-3.292zM7.592 8.221l.495-.479 3.403 3.292-.495.479-3.403-3.292zm4.915 2.822l3.399-3.296v.002l.495.479-3.4 3.293-.495-.478zm-4.904 4.743l3.401-3.294.496.479-3.401 3.293-.496-.479z"
      fill="#fff"
    />
  </g>
</svg>
